packages/web-icons/svgs/menu.svg

<svg viewBox="0 0 49 46" xmlns="http://www.w3.org/2000/svg" class="ridi_icon"><path d="M43.4 18.4H4.6C2 18.4 0 20.5 0 23c0 2.5 2.1 4.6 4.6 4.6h38.9c2.6 0 4.6-2.1 4.6-4.6 0-2.5-2.2-4.6-4.7-4.6zm0 18.3H4.6C2 36.7 0 38.8 0 41.3c0 2.5 2.1 4.6 4.6 4.6h38.9c2.6 0 4.6-2.1 4.6-4.6-.1-2.6-2.2-4.6-4.7-4.6zm0-36.6H4.6C2.1.1 0 2.2 0 4.7c0 2.5 2.1 4.6 4.6 4.6h38.9C46 9.3 48 7.2 48 4.7 48 2.2 45.9.1 43.4.1z"/></svg>

<?xml version="1.0" encoding="UTF-8"?>
<svg width="49px" height="46px" viewBox="0 0 49 46" version="1.1" xmlns="http://www.w3.org/2000/svg">
  <!-- Generator: Sketch 41.2 (35397) - http://www.bohemiancoding.com/sketch -->
  <title>menu</title>
  <desc>Created with Sketch.</desc>
  <defs></defs>
  <g id="Page-1" stroke="none" stroke-width="1" fill="none" fill-rule="evenodd">
    <g id="menu" fill="#000000">
      <g id="레이어_1">
        <path d="M43.4,18.4 L4.6,18.4 C2,18.4 0,20.5 0,23 C0,25.5 2.1,27.6 4.6,27.6 L43.5,27.6 C46.1,27.6 48.1,25.5 48.1,23 C48.1,20.5 45.9,18.4 43.4,18.4 Z M43.4,36.7 L4.6,36.7 C2,36.7 0,38.8 0,41.3 C0,43.8 2.1,45.9 4.6,45.9 L43.5,45.9 C46.1,45.9 48.1,43.8 48.1,41.3 C48,38.7 45.9,36.7 43.4,36.7 Z M43.4,0.1 L4.6,0.1 C2.1,0.1 0,2.2 0,4.7 C0,7.2 2.1,9.3 4.6,9.3 L43.5,9.3 C46,9.3 48,7.2 48,4.7 C48,2.2 45.9,0.1 43.4,0.1 Z" id="Shape"></path>
      </g>
    </g>
  </g>
</svg>
